X:3415
T:Copenhagen Waltz
R:Waltz
O:England
M:3/4
N:in MR
A:Lancashire
B:Winder
K:G
Bd |\
ce Bd Ac | GB D2 GB | Ac D2 FA | GB D2 Bd |\
ce Bd Ac | GB D2 GB | Ac D2 FA | G4 :|*
|:GB |\
Ac D2 FA | GB D2 GB | Ac D2 FA | GB D2 Bd |\
ce Bd Ac | GB D2 GB | Ac D2 FA | G4 :|**


